X: 1
T:Keel Rows
M:4/4
L:1/8
R:Strathspey
K:G
d>c|"G"B2 G>B "C"c2 A>c|"G"B2 G>B "D"A>F D2|"G"B2 G>B "C"c>c A>c|"G"B>G
"D"A>F "G"G2:||:G>A|"G"B<d d>g "C"e2 d>c|"G"B2  G>B "D"A>F D2|"G"B<d d>g
 "C"e2 d>c|"G"B>G "D"A>F "G"G2:||
